www/assets/icons/install_mobile.svg

<svg xmlns="http://www.w3.org/2000/svg" width="24" height="24" viewBox="0 0 24 24" fill='currentColor'><path d="M15 18H5V6h7V1H5c-1.1 0-2 .9-2 2v18c0 1.1.9 2 2 2h10c1.1 0 2-.9 2-2v-5h-2z"/><path d="m16 14 5-5-1.41-1.41L17 10.17V3h-2v7.17l-2.59-2.58L11 9z"/></svg>

<svg width="24" height="24" viewBox="0 0 24 24" xmlns="http://www.w3.org/2000/svg" fill='currentColor'><path d="M15 18H5V6H12V1H5C3.9 1 3 1.9 3 3V21C3 22.1 3.9 23 5 23H15C16.1 23 17 22.1 17 21V16H15V18Z"/><path d="M16 14L21 9L19.59 7.59L17 10.17V3H15V10.17L12.41 7.59L11 9L16 14Z"/></svg>
